media/backgrounds/spotlight-stage2.svg

<svg width="498" height="365" viewBox="-1 -1 498 365" xmlns="http://www.w3.org/2000/svg"><defs><linearGradient id="a" y2="1"><stop offset="0" stop-color="#FFF"/><stop offset="1" stop-color="#FFF" stop-opacity="0"/></linearGradient><linearGradient id="b" y2="1"><stop offset="0" stop-color="#FFF"/><stop offset="1" stop-color="#FFF" stop-opacity="0"/></linearGradient><linearGradient id="c" y2="1"><stop offset="0" stop-color="#FFF"/><stop offset="1" stop-color="#FFF" stop-opacity="0"/></linearGradient></defs><path fill="#828282" stroke="#828282" stroke-width="2" d="M-1 0h480v251H-1V0z"/><path fill="#022B5E" stroke="#000" d="M0 246h480v114H0V246z" transform="matrix(1.00832 0 0 1.36522 -2.85 -131.45)"/><path fill="url(#a)" d="M54 2h37l230 305-158 10L54 2z" transform="translate(-61 -4)"/><path fill="url(#b)" d="M64 13l25-3 232 297-158 10L64 13z" transform="matrix(-1 0 0 1 553 -13)"/><path fill="url(#c)" d="M127-5l59-1 68 289-205 5L127-5z" transform="translate(93 4)"/><g stroke-width="2"><path fill="#9C8EFF" stroke="#000" d="M253.25 234.5c16.622 0 31.685.924 42.592 2.418 10.907 1.493 17.658 3.556 17.658 5.832s-6.751 4.339-17.658 5.832c-10.907 1.494-25.97 2.418-42.592 2.418s-31.685-.924-42.592-2.418C199.751 247.089 193 245.026 193 242.75s6.751-4.339 17.658-5.832c10.907-1.494 25.97-2.418 42.592-2.418z" transform="matrix(1.23215 0 0 .7027 -74.4 36.65)"/><path fill="#9C8EFF" stroke="#9C8EFF" stroke-linecap="round" d="M193.15 247.8l6.75 1.65-5.75-4.55-1 2.9z" transform="matrix(1.22664 0 0 1 -72.15 -41.5)"/><path fill="#9C8EFF" stroke="#9C8EFF" stroke-linecap="round" d="M193 247.15l5.1 1.4-3.95-3.65-1.15 2.25z" transform="matrix(-1.22664 0 0 1 547.6 -40.95)"/><path fill="#C9C5FB" stroke="#000" d="M253.25 234.5c16.622 0 31.685.924 42.592 2.418 10.907 1.493 17.658 3.556 17.658 5.832s-6.751 4.339-17.658 5.832c-10.907 1.494-25.97 2.418-42.592 2.418s-31.685-.924-42.592-2.418C199.751 247.089 193 245.026 193 242.75s6.751-4.339 17.658-5.832c10.907-1.494 25.97-2.418 42.592-2.418z" transform="matrix(1.22664 0 0 .7027 -73.35 33.05)"/><path fill="none" stroke="#000" stroke-linecap="round" d="M192.1 249.2l.1-3.85z" transform="matrix(1.22664 0 0 1 -72.35 -41.7)"/><path fill="none" stroke="#000" stroke-linecap="round" d="M312.6 245.25l.35 3.5z" transform="matrix(1.22664 0 0 1 -72.15 -41.5)"/><path fill="#9C8EFF" stroke="#000" d="M253.25 234.5c16.622 0 31.685.924 42.592 2.418 10.907 1.493 17.658 3.556 17.658 5.832s-6.751 4.339-17.658 5.832c-10.907 1.494-25.97 2.418-42.592 2.418s-31.685-.924-42.592-2.418C199.751 247.089 193 245.026 193 242.75s6.751-4.339 17.658-5.832c10.907-1.494 25.97-2.418 42.592-2.418z" transform="matrix(1.10976 0 0 .7027 -42.75 28.25)"/><path fill="#9C8EFF" stroke="#9C8EFF" stroke-linecap="round" d="M193.15 247.8l6.75 1.65-5.75-4.55-1 2.9z" transform="matrix(1.1048 0 0 1 -40.75 -49.9)"/><path fill="#9C8EFF" stroke="#9C8EFF" stroke-linecap="round" d="M193 247.15l5.1 1.4-3.95-3.65-1.15 2.25z" transform="matrix(-1.1048 0 0 1 517.4 -49.35)"/><path fill="#C9C5FB" stroke="#000" d="M253.25 234.5c16.622 0 31.685.924 42.592 2.418 10.907 1.493 17.658 3.556 17.658 5.832s-6.751 4.339-17.658 5.832c-10.907 1.494-25.97 2.418-42.592 2.418s-31.685-.924-42.592-2.418C199.751 247.089 193 245.026 193 242.75s6.751-4.339 17.658-5.832c10.907-1.494 25.97-2.418 42.592-2.418z" transform="matrix(1.1048 0 0 .7027 -41.85 24.65)"/><path fill="none" stroke="#000" stroke-linecap="round" d="M192.1 249.2l.1-3.85z" transform="matrix(1.1048 0 0 1 -40.95 -50.1)"/><path fill="none" stroke="#000" stroke-linecap="round" d="M312.6 245.25l.35 3.5z" transform="matrix(1.1048 0 0 1 -40.75 -49.9)"/><path fill="#9C8EFF" stroke="#000" d="M253.25 234.5c16.622 0 31.685.924 42.592 2.418 10.907 1.493 17.658 3.556 17.658 5.832s-6.751 4.339-17.658 5.832c-10.907 1.494-25.97 2.418-42.592 2.418s-31.685-.924-42.592-2.418C199.751 247.089 193 245.026 193 242.75s6.751-4.339 17.658-5.832c10.907-1.494 25.97-2.418 42.592-2.418z" transform="matrix(1.0045 0 0 .7027 -16.85 20.25)"/><path fill="#9C8EFF" stroke="#9C8EFF" stroke-linecap="round" d="M178.15 190.05l6.75 1.65-5.75-4.55-1 2.9zm119.1-.15l-5.1 1.4 3.95-3.65 1.15 2.25z"/><path fill="#C9C5FB" stroke="#000" d="M253.25 234.5c16.622 0 31.685.924 42.592 2.418 10.907 1.493 17.658 3.556 17.658 5.832s-6.751 4.339-17.658 5.832c-10.907 1.494-25.97 2.418-42.592 2.418s-31.685-.924-42.592-2.418C199.751 247.089 193 245.026 193 242.75s6.751-4.339 17.658-5.832c10.907-1.494 25.97-2.418 42.592-2.418z" transform="matrix(1 0 0 .7027 -16 16.75)"/><path fill="none" stroke="#000" stroke-linecap="round" d="M176.95 191.2l.1-3.85zm120.65-3.7l.35 3.5z"/></g></svg>

<svg version="1.1" width="498" height="365" viewBox="-1 -1 498 365" xmlns="http://www.w3.org/2000/svg" xmlns:xlink="http://www.w3.org/1999/xlink">
  <defs>
    <linearGradient id="grad_1" y2="1">
      <stop offset="0" stop-color="#FFFFFF" stop-opacity="1"/>
      <stop offset="1" stop-color="#FFFFFF" stop-opacity="0"/>
    </linearGradient>
    <linearGradient id="grad_2" y2="1">
      <stop offset="0" stop-color="#FFFFFF" stop-opacity="1"/>
      <stop offset="1" stop-color="#FFFFFF" stop-opacity="0"/>
    </linearGradient>
    <linearGradient id="grad_3" y2="1">
      <stop offset="0" stop-color="#FFFFFF" stop-opacity="1"/>
      <stop offset="1" stop-color="#FFFFFF" stop-opacity="0"/>
    </linearGradient>
  </defs>
  <!-- Exported by Scratch - http://scratch.mit.edu/ -->
  <g id="ID0.5927880126982927">
    <path id="ID0.9568517836742103" fill="#828282" stroke="#828282" stroke-width="2" d="M 0 0 L 480 0 L 480 251 L 0 251 L 0 0 Z " transform="matrix(1, 0, 0, 1, -1, 0)"/>
    <path id="ID0.01484465692192316" fill="#022B5E" stroke="#000000" stroke-width="1" d="M 0 246 L 480 246 L 480 360 L 0 360 L 0 246 Z " transform="matrix(1.0083160400390625, 0, 0, 1.3652174472808838, -2.85, -131.45)"/>
    <path id="ID0.02304951287806034" fill="url(#grad_1)" stroke="none" stroke-linecap="round" d="M 54 2 L 91 2 L 321 307 L 163 317 L 54 2 Z " transform="matrix(1, 0, 0, 1, -61, -4)"/>
    <path id="ID0.02304951287806034" fill="url(#grad_2)" stroke="none" stroke-linecap="round" d="M 64 13 L 89 10 L 321 307 L 163 317 L 64 13 Z " transform="matrix(-1, 0, 0, 1, 553, -13)"/>
    <path id="ID0.02304951287806034" fill="url(#grad_3)" stroke="none" stroke-linecap="round" d="M 127 -5 L 186 -6 L 254 283 L 49 288 L 127 -5 Z " transform="matrix(1, 0, 0, 1, 93, 4)"/>
    <g id="ID0.7442521266639233">
      <g id="ID0.6628183606080711">
        <path id="ID0.8629278726875782" fill="#9C8EFF" stroke="#000000" stroke-width="2" d="M 253.250 234.500 C 269.872 234.500 284.935 235.424 295.842 236.918 C 306.749 238.411 313.500 240.474 313.500 242.750 C 313.500 245.026 306.749 247.089 295.842 248.582 C 284.935 250.076 269.872 251 253.250 251 C 236.628 251 221.565 250.076 210.658 248.582 C 199.751 247.089 193 245.026 193 242.750 C 193 240.474 199.751 238.411 210.658 236.918 C 221.565 235.424 236.628 234.500 253.250 234.500 Z " transform="matrix(1.2321546077728271, 0, 0, 0.7027027010917664, -74.4, 36.65)"/>
        <path id="ID0.7163027632050216" fill="#9C8EFF" stroke="#9C8EFF" stroke-width="2" stroke-linecap="round" d="M 193.150 247.800 L 199.900 249.450 L 194.150 244.900 L 193.150 247.800 Z " transform="matrix(1.2266449928283691, 0, 0, 1, -72.15, -41.5)"/>
        <path id="ID0.7163027632050216" fill="#9C8EFF" stroke="#9C8EFF" stroke-width="2" stroke-linecap="round" d="M 193 247.150 L 198.100 248.550 L 194.150 244.900 L 193 247.150 Z " transform="matrix(-1.2266449928283691, 0, 0, 1, 547.6, -40.95)"/>
        <path id="ID0.8629278726875782" fill="#C9C5FB" stroke="#000000" stroke-width="2" d="M 253.250 234.500 C 269.872 234.500 284.935 235.424 295.842 236.918 C 306.749 238.411 313.500 240.474 313.500 242.750 C 313.500 245.026 306.749 247.089 295.842 248.582 C 284.935 250.076 269.872 251 253.250 251 C 236.628 251 221.565 250.076 210.658 248.582 C 199.751 247.089 193 245.026 193 242.750 C 193 240.474 199.751 238.411 210.658 236.918 C 221.565 235.424 236.628 234.500 253.250 234.500 Z " transform="matrix(1.2266449928283691, 0, 0, 0.7027027010917664, -73.35, 33.05)"/>
        <path id="ID0.21360404044389725" fill="none" stroke="#000000" stroke-width="2" stroke-linecap="round" d="M 192.100 249.200 L 192.200 245.350 Z " transform="matrix(1.2266449928283691, 0, 0, 1, -72.35, -41.7)"/>
        <path id="ID0.4139464655891061" fill="none" stroke="#000000" stroke-width="2" stroke-linecap="round" d="M 312.600 245.250 L 312.950 248.750 Z " transform="matrix(1.2266449928283691, 0, 0, 1, -72.15, -41.5)"/>
      </g>
      <g id="ID0.6628183606080711">
        <path id="ID0.8629278726875782" fill="#9C8EFF" stroke="#000000" stroke-width="2" d="M 253.250 234.500 C 269.872 234.500 284.935 235.424 295.842 236.918 C 306.749 238.411 313.500 240.474 313.500 242.750 C 313.500 245.026 306.749 247.089 295.842 248.582 C 284.935 250.076 269.872 251 253.250 251 C 236.628 251 221.565 250.076 210.658 248.582 C 199.751 247.089 193 245.026 193 242.750 C 193 240.474 199.751 238.411 210.658 236.918 C 221.565 235.424 236.628 234.500 253.250 234.500 Z " transform="matrix(1.109755039215088, 0, 0, 0.7027027010917664, -42.75, 28.25)"/>
        <path id="ID0.7163027632050216" fill="#9C8EFF" stroke="#9C8EFF" stroke-width="2" stroke-linecap="round" d="M 193.150 247.800 L 199.900 249.450 L 194.150 244.900 L 193.150 247.800 Z " transform="matrix(1.104792833328247, 0, 0, 1, -40.75, -49.9)"/>
        <path id="ID0.7163027632050216" fill="#9C8EFF" stroke="#9C8EFF" stroke-width="2" stroke-linecap="round" d="M 193 247.150 L 198.100 248.550 L 194.150 244.900 L 193 247.150 Z " transform="matrix(-1.104792833328247, 0, 0, 1, 517.4, -49.35)"/>
        <path id="ID0.8629278726875782" fill="#C9C5FB" stroke="#000000" stroke-width="2" d="M 253.250 234.500 C 269.872 234.500 284.935 235.424 295.842 236.918 C 306.749 238.411 313.500 240.474 313.500 242.750 C 313.500 245.026 306.749 247.089 295.842 248.582 C 284.935 250.076 269.872 251 253.250 251 C 236.628 251 221.565 250.076 210.658 248.582 C 199.751 247.089 193 245.026 193 242.750 C 193 240.474 199.751 238.411 210.658 236.918 C 221.565 235.424 236.628 234.500 253.250 234.500 Z " transform="matrix(1.104792833328247, 0, 0, 0.7027027010917664, -41.85, 24.65)"/>
        <path id="ID0.21360404044389725" fill="none" stroke="#000000" stroke-width="2" stroke-linecap="round" d="M 192.100 249.200 L 192.200 245.350 Z " transform="matrix(1.104792833328247, 0, 0, 1, -40.95, -50.1)"/>
        <path id="ID0.4139464655891061" fill="none" stroke="#000000" stroke-width="2" stroke-linecap="round" d="M 312.600 245.250 L 312.950 248.750 Z " transform="matrix(1.104792833328247, 0, 0, 1, -40.75, -49.9)"/>
      </g>
      <g id="ID0.6628183606080711">
        <path id="ID0.8629278726875782" fill="#9C8EFF" stroke="#000000" stroke-width="2" d="M 253.250 234.500 C 269.872 234.500 284.935 235.424 295.842 236.918 C 306.749 238.411 313.500 240.474 313.500 242.750 C 313.500 245.026 306.749 247.089 295.842 248.582 C 284.935 250.076 269.872 251 253.250 251 C 236.628 251 221.565 250.076 210.658 248.582 C 199.751 247.089 193 245.026 193 242.750 C 193 240.474 199.751 238.411 210.658 236.918 C 221.565 235.424 236.628 234.500 253.250 234.500 Z " transform="matrix(1.0044915676116943, 0, 0, 0.7027027010917664, -16.85, 20.25)"/>
        <path id="ID0.7163027632050216" fill="#9C8EFF" stroke="#9C8EFF" stroke-width="2" stroke-linecap="round" d="M 193.150 247.800 L 199.900 249.450 L 194.150 244.900 L 193.150 247.800 Z " transform="matrix(1, 0, 0, 1, -15, -57.75)"/>
        <path id="ID0.7163027632050216" fill="#9C8EFF" stroke="#9C8EFF" stroke-width="2" stroke-linecap="round" d="M 193 247.150 L 198.100 248.550 L 194.150 244.900 L 193 247.150 Z " transform="matrix(-1, 0, 0, 1, 490.25, -57.25)"/>
        <path id="ID0.8629278726875782" fill="#C9C5FB" stroke="#000000" stroke-width="2" d="M 253.250 234.500 C 269.872 234.500 284.935 235.424 295.842 236.918 C 306.749 238.411 313.500 240.474 313.500 242.750 C 313.500 245.026 306.749 247.089 295.842 248.582 C 284.935 250.076 269.872 251 253.250 251 C 236.628 251 221.565 250.076 210.658 248.582 C 199.751 247.089 193 245.026 193 242.750 C 193 240.474 199.751 238.411 210.658 236.918 C 221.565 235.424 236.628 234.500 253.250 234.500 Z " transform="matrix(1, 0, 0, 0.7027027010917664, -16, 16.75)"/>
        <path id="ID0.21360404044389725" fill="none" stroke="#000000" stroke-width="2" stroke-linecap="round" d="M 192.100 249.200 L 192.200 245.350 Z " transform="matrix(1, 0, 0, 1, -15.15, -58)"/>
        <path id="ID0.4139464655891061" fill="none" stroke="#000000" stroke-width="2" stroke-linecap="round" d="M 312.600 245.250 L 312.950 248.750 Z " transform="matrix(1, 0, 0, 1, -15, -57.75)"/>
      </g>
    </g>
  </g>
</svg>
